X:1
T: The Eastern Harper
C:
R:Jig
Q:180
K:G
M:6/8
L:1/16
|:c2A2A2 e2A2A2|efg2e2 f2d2B2|c2A2A2 e2A2A2|B2G2B2 d2c2B2|
c2A2A2 e2A2A2|efg2e2 f2d2B2|d2e2f2 g2f2g2|B2G2B2 d2c2B2:|
|:d2e2f2 g4e2|f2a2f2 g2f2e2|d2e2f2 g2f2e2|d2B2d2 d2B2A2|
d2e2f2 g4e2|f2a2f2 g4a2|b2a2f2 g2f2e2|d2B2d2 d2B2A2:|
